assets/icons/action/follow.svg

<?xml version="1.0"?><svg xmlns="http://www.w3.org/2000/svg" width="52" height="52" viewBox="0 0 52 52"><g fill="#fff"><path d="m50.5 38h-4.5v-4.5c0-0.8-0.7-1.5-1.5-1.5h-3c-0.8 0-1.5 0.7-1.5 1.5v4.5h-4.5c-0.8 0-1.5 0.7-1.5 1.5v3c0 0.8 0.7 1.5 1.5 1.5h4.5v4.5c0 0.8 0.7 1.5 1.5 1.5h3c0.8 0 1.5-0.7 1.5-1.5v-4.5h4.5c0.8 0 1.5-0.7 1.5-1.5v-3c0-0.8-0.7-1.5-1.5-1.5z m-16.5-4h1c0.6 0 1-0.4 1-1v-1c0-2.2 1.8-4 4-4h4.5c0.8 0 1.5-0.7 1.5-1.5v-20.5c0-2.2-1.8-4-4-4h-36c-2.2 0-4 1.8-4 4v36c0 2.2 1.8 4 4 4h22.5c0.9 0 1.6-0.7 1.5-1.6v-6.4c0-2.2 1.8-4 4-4z m-8-23c0-0.6 0.4-1 1-1h10c0.6 0 1 0.4 1 1v2c0 0.6-0.4 1-1 1h-10c-0.6 0-1-0.4-1-1v-2z m0 8c0-0.6 0.4-1 1-1h10c0.6 0 1 0.4 1 1v2c0 0.6-0.4 1-1 1h-10c-0.6 0-1-0.4-1-1v-2z m-16-8c0-0.6 0.4-1 1-1h10c0.6 0 1 0.4 1 1v10c0 0.6-0.4 1-1 1h-10c-0.6 0-1-0.4-1-1v-10z m16 26c0 0.6-0.4 1-1 1h-14c-0.6 0-1-0.4-1-1v-2c0-0.6 0.4-1 1-1h14c0.6 0 1 0.4 1 1v2z m-15-7c-0.6 0-1-0.4-1-1v-2c0-0.6 0.4-1 1-1h20c0.6 0 1 0.4 1 1v2c0 0.6-0.4 1-1 1h-20z"></path></g></svg>

<svg xmlns="http://www.w3.org/2000/svg" x="0px" y="0px"
	 width="52px" height="52px" viewBox="0 0 52 52" enable-background="new 0 0 52 52" xml:space="preserve">
<g>
	<path fill="#FFFFFF" d="M50.5,38H46v-4.5c0-0.8-0.7-1.5-1.5-1.5h-3c-0.8,0-1.5,0.7-1.5,1.5V38h-4.5c-0.8,0-1.5,0.7-1.5,1.5v3
		c0,0.8,0.7,1.5,1.5,1.5H40v4.5c0,0.8,0.7,1.5,1.5,1.5h3c0.8,0,1.5-0.7,1.5-1.5V44h4.5c0.8,0,1.5-0.7,1.5-1.5v-3
		C52,38.7,51.3,38,50.5,38z"/>
	<path fill="#FFFFFF" d="M34,34h1c0.6,0,1-0.4,1-1v-1c0-2.2,1.8-4,4-4h4.5c0.8,0,1.5-0.7,1.5-1.5V6c0-2.2-1.8-4-4-4H6
		C3.8,2,2,3.8,2,6v36c0,2.2,1.8,4,4,4h22.5c0.9,0,1.6-0.7,1.5-1.6c0-0.1,0-0.3,0-0.4v-6C30,35.8,31.8,34,34,34z M26,11
		c0-0.6,0.4-1,1-1h10c0.6,0,1,0.4,1,1v2c0,0.6-0.4,1-1,1H27c-0.6,0-1-0.4-1-1V11z M26,19c0-0.6,0.4-1,1-1h10c0.6,0,1,0.4,1,1v2
		c0,0.6-0.4,1-1,1H27c-0.6,0-1-0.4-1-1V19z M10,11c0-0.6,0.4-1,1-1h10c0.6,0,1,0.4,1,1v10c0,0.6-0.4,1-1,1H11c-0.6,0-1-0.4-1-1V11z
		 M26,37c0,0.6-0.4,1-1,1H11c-0.6,0-1-0.4-1-1v-2c0-0.6,0.4-1,1-1h14c0.6,0,1,0.4,1,1V37z M11,30c-0.6,0-1-0.4-1-1v-2
		c0-0.6,0.4-1,1-1h20c0.6,0,1,0.4,1,1v2c0,0.6-0.4,1-1,1H11z"/>
</g>
</svg>
